X:1
T:Puisque mon cueur
T:Clement Morel
T:Source : Livre XX de 28 chansons nouvelles à 4 parties---Paris---P.Attaingnant---1546. Editor : André Vierendeels (20/07/18) Notes : Original clefs : C1, C3, C3, F3 Original note values have been halved Editorial accidentals above the staff Square brackets indicate ligatures 
T:Puisque mon cueur
T:©
T:©
C:Clement Morel
Z:©
%%score [ 1 2 3 4 ]
L:1/8
Q:1/4=120
M:2/2
K:C
V:1 treble nm="Soprano" snm="S"
V:2 treble nm="Alto" snm="A"
V:3 treble-8 nm="Tenor" snm="T"
V:4 bass nm="Bass" snm="B"
V:1
 c4 c2 c2 | A2 c2 B2 A2 | G4 A2 c2- | cB A3 G FE | D2 A3 G G2- | G2 F2 G4- | G4 z2 G2 | G4 A4 | %8
w: Puis- que mon|cueur fer- me- ment|con- ti- nu-|||* * e,|_ d'es-|tre'a- mou-|
 B2 B2 c4 | B2 G2 A4 | G3 A B2 c2- | c2 B4 A2- | A2 G2 A4 | z2 B2 c4 | A4 G4 | z2 B2 c4 | A4 G4 | %17
w: reux d'el- le'à|tout ia- *|||* * mays,|ce- la|est dict,|ce- la|est dict,|
 z2 B2 B2 B2 | d3 c AB c2- | c2 BA GABc | d2 c4 B2 | c4 z2 c2 | c2 c2 A2 c2 | B2 A2 G4 | %24
w: ain- sy le|vous _ _ _ _|_ pro- * * * * *||metz, et|de ma part, la|foy se- ra|
 A2 c3 B A2- | AGFE D2 A2- | AG G4 F2 | G8 |] %28
w: te- nu- * *|||e,|
V:2
 G4 G2 G2 | F2 G2 G2 E2 | E3 D CB, C2- | C2 C2 D2 A,2 | z2 F2 FEDC | D2 D2 B,2 D2 | E2 G2 F2 E2 | %7
w: Puis- que mon|cueur fer- me- ment|con- * * * *|* ti- nu- e,|con- * * * *|* ti- nu- e,|d'e- stre'a- mou- reux|
 D2 G,2 C4 | D2 E4 DC | D2 C4 B,A, | C2 B,2 G,2 G2- | G2 F2 E2 D2 | E8 | z2 G2 E4 | F4 E4 | %15
w: d'el- le'à tout|ia- * * *||||mays,|ce- la|est dict,|
 z2 G2 G4 | F4 E2 E2 | G3 F E2 D2- | D2 F4 E2 | G4 z2 E2 | A2 G2 A2 G2 | E4 z2 G2 | G2 G2 F2 G2- | %23
w: ce- la|est dict, ain-|sy _ _ le|_ vous pro-|metz, ain-|sy le vous pro-|metz, et|de ma part, la|
 G2 E2 E3 D | CB, C4 C2 | D2 A,2 z2 F2- | FEDC D4 | D8 |] %28
w: _ foy se- *|* * ra te-|nu- e, te-|* * * * nu-|e.|
V:3
 e4 e2 e2 | c2 e2 d2 cd | ef g4 f2 | e2 f3 e dc | BcdB cB BA/G/ | A4 G4- | G4 z4 | z2 d2 e2 f2 | %8
w: Puis- que mon|cueur fer- me- ment _|_ _ con- ti-|nu- * * * *||* e,|_|d'es- tre'a- mou-|
 g3 f ed f2- | fe e4 d2 | e2 g3 f ed | e2 d3 c BA | B4 A2 c2- | cd e4 c2 | d4 B4 | z2 e2 e4 | %16
w: reux _ _ _ _|_ _ _ d'el-|le'à _ _ _ _|tout ia- * * *|* mays, ce-|* * * la|est dict,|ce la|
 d4 B4- | B4 z2 B2 | B2 d4 c2 | d4 e2 g2 | f2 e2 d4 | c4 z2 e2 | e2 e2 c2 e2 | d2 cd ef g2- | %24
w: est dict,|_ aus-|sy le vous|pro- * *||metz, et|de ma part, la|foy se- * * * *|
 g2 f2 e2 f2- | fedc BcdB | cB BA/G/ A4 | G8 |] %28
w: * * ra te-||* * * * * nu-|e.|
V:4
 C,4 C,2 C,2 | F,2 C,2 G,2 A,2 | C3 B, A,G, A,2- | A,G,F,E, D,2 F,2 | G,2 D,2 F,2 G,2 | D,4 G,4 | %6
w: Puis- que mon|cueur fer- me- ment|con- * * * *|* * * * * ti-|nu- * * *|* e,|
 z2 G,2 A,2 C2- | C2 B,2 A,4 | G,2 E,2 A,4 | G,2 E,2 F,4 | E,6 C,2- | C,2 D,2 E,2 F,2 | %12
w: d'es- tre'a- mou-|* reux d'el-|le'à tout ia-||mays, à|_ tout ia- *|
 E,4 A,,2 A,2- | A,2 G,2 A,4 | D,4 E,4 | z2 E,2 C,4 | D,4 E,2 E,2 | E,2 E,2 G,3 F, | D,4 A,4 | %19
w: * mays, ce-|* la est|_ dict,|ce- la|est dict, ain-|sy le vous _|_ pro-|
 G,3 F, E,4 | D,2 E,2 F,2 G,2 |"^#" C,4 z2 C,2 | C,2 C,2 F,2 C,2 | G,2 A,2 C3 B, | %24
w: ||metz, et|de ma part, la|foy se- ra _|
 A,G, A,3 G, F,E, | D,2 F,2 G,2 D,2 | F,2 G,2 D,4 | G,8 |] %28
w: _ _ _ _ _ _|* te- nu- *||e.|

